X:1
T:D minor Walter Janes, 1807
T:Isaac Watts, 1707 (Hymn 91, Book 1)        88. 88. (L. M.)
T:Precept
T:Treble-Tenor-Bass from The Harmonic Minstrelsey , 1807; Counter by B. C. Johnston, 2016.
%%score [ 1 2 3 4 ]
L:1/8
Q:1/4=100
M:2/4
K:F
V:1 treble nm="Tr." snm="Tr."
V:2 treble nm="C." snm="C."
V:3 treble-8 nm="T." snm="T."
V:4 bass nm="B." snm="B."
V:1
"^1. Now in  the  heat of  youthful blood       Re–mem–ber your Cre–a–tor  God:          Behold, the months come hastening on," D2 | %1
 F2 FG | A2 AB | c2 e2 | d4 || z2 e2 | f2 fd | e2 c2 | A2 G2 | F4 |: z2 DE | F2 F2 | FA A2 | %13
 Ac cd | c4 || %15
 z2"^1. When you shall  say,  \"My joys  are gone!\"            When   you    shall     say,     \"My       joys      are         gone!\"" c2 | %16
 f2 c2 | A2 F2 | dc BA | G4 || z2 A2 | cA A2 | GE FG | Ad d^c |1 d4 :|2 d4- || d4 |] %27
V:2
"^2. Behold, the  a – ged  sin – ner goes,        Laden with guilt and heavy woes,           Down    to  the  regions    of     the    dead," A2 | %1
 F2 AG | F2 cB | c2 A2 | A4 || z2 c2 | A2 FG | A2 c2 | A2 B2 | c4 |: z2 dB | A2 A2 | FA c2 | %13
 cA FD | E4 || %15
 z2"^2. With endless  curses    on         his    head,               With     end – less      cur  –  ses        on          his         head." c2 | %16
 c2 A2 | A2 A2 | BA BA | G4 || z2 cB | A2 AB | c2 A2 | A2 A2 |1 A4 :|2 A4- || A4 |] %27
V:3
"^3. The  dust  returns   to   dust  again;        The soul, in      a – go – nies  of  pain,           Ascends  to    God, not   there to    dwell," A2 | %1
 d2 d2 | c2 cB | A2 A2 | A4 || z2 c2 | A2 A2 | A2 GF | c2 c2 | c4 |: z2 FG | A2 A2 | Ac c2 | %13
 cf f2 | e4 || %15
 z2"^3. But hears her  doom,  and sinks  to  hell.                But      hears  her      doom,  and      sinks    to           hell." f2 | %16
 c2 A2 | F2 A2 | Bc d2 | c4 || z2 cB | Ac cd | cB AG | FG A2 |1 A4 :|2 A4- || A4 |] %27
V:4
"^4. E–ter–nal   King!  I   fear  thy name;       Teach me to   know  how  frail  I  am;           And when my soul must hence remove," D,2 | %1
 D,2 D,2 | F,2 F,G, | A,2 A,,2 | D,4 || z2 C,2 | F,2 F,2 | A,2 A,2 | C2 C,2 | F,4 |: z2 F,E, | %11
 D,2 D,2 | A,,2 A,,2 | F,2 F,2 | A,4 || %15
 z2"^_____________________________________________\nEdited by B. C. Johnston, 2016.\n   1. First and second staves reversed; first labeled \"Air.\"\n   2. Counter part written.""^4. Give   me   a   mansion in       thy         love.                Give     me       a           man –  sion     in          thy         love." F,2 | %16
 F,2 F,2 | F,2 F,2 | B,A, G,F, | C,4 || z2 F,G, | A,2 A,,2 | C,2 F,E, | D,2 A,,2 |1 D,4 :|2 D,4- || %26
 D,4 |] %27

